src/icons/solid/symbols/location.svg

<svg width="24" height="24" viewBox="0 0 24 24" fill="none" xmlns="http://www.w3.org/2000/svg">
<g clip-path="url(#clip0_5080_982)">
<path fill-rule="evenodd" clip-rule="evenodd" d="M12 1C7.02944 1 3 5.05869 3 10.0653C3 16.0286 8.0625 21.3218 11.4792 22.9021C11.7721 23.0376 12.2496 23.0276 12.5208 22.9021C15.1431 21.6893 21 16.0286 21 10.0653C21 5.05869 16.9706 1 12 1ZM12 13.2455C13.864 13.2455 15.375 11.7503 15.375 9.90581C15.375 8.06136 13.864 6.56613 12 6.56613C10.136 6.56613 8.625 8.06136 8.625 9.90581C8.625 11.7503 10.136 13.2455 12 13.2455Z" fill="#3C3B44"/>
</g>
<defs>
<clipPath id="clip0_5080_982">
<rect width="24" height="24" fill="white"/>
</clipPath>
</defs>
</svg>

<svg xmlns="http://www.w3.org/2000/svg" width="24" height="24" fill="none" viewBox="0 0 24 24"><g clip-path="url(#a)"><path fill="currentColor" fill-rule="evenodd" d="M12 1c-4.97 0-9 4.059-9 9.065 0 5.964 5.063 11.257 8.48 12.837.292.136.77.126 1.04 0C15.144 21.69 21 16.03 21 10.065 21 5.06 16.97 1 12 1m0 12.246c1.864 0 3.375-1.496 3.375-3.34 0-1.845-1.511-3.34-3.375-3.34s-3.375 1.495-3.375 3.34 1.511 3.34 3.375 3.34" clip-rule="evenodd"/></g><defs><clipPath id="a"><path fill="currentColor" d="M0 0h24v24H0z"/></clipPath></defs></svg>
